scalable/apps/onboard.svg

<?xml version="1.0" encoding="UTF-8" standalone="no"?>
<!-- Generator: Adobe Illustrator 19.0.0, SVG Export Plug-In . SVG Version: 6.00 Build 0)  -->

<svg
   xmlns:dc="http://purl.org/dc/elements/1.1/"
   xmlns:cc="http://creativecommons.org/ns#"
   xmlns:rdf="http://www.w3.org/1999/02/22-rdf-syntax-ns#"
   xmlns:svg="http://www.w3.org/2000/svg"
   xmlns="http://www.w3.org/2000/svg"
   xmlns:xlink="http://www.w3.org/1999/xlink"
   xmlns:sodipodi="http://sodipodi.sourceforge.net/DTD/sodipodi-0.dtd"
   xmlns:inkscape="http://www.inkscape.org/namespaces/inkscape"
   version="1.1"
   id="Capa_1"
   x="0px"
   y="0px"
   viewBox="0 0 48 48"
   xml:space="preserve"
   sodipodi:docname="onboard.svg"
   width="48"
   height="48"
   inkscape:version="0.92.3 (2405546, 2018-03-11)"><metadata
   id="metadata41"><rdf:RDF><cc:Work
       rdf:about=""><dc:format>image/svg+xml</dc:format><dc:type
         rdf:resource="http://purl.org/dc/dcmitype/StillImage" /><dc:title></dc:title></cc:Work></rdf:RDF></metadata><defs
   id="defs39"><linearGradient
     inkscape:collect="always"
     id="linearGradient1016"><stop
       style="stop-color:#cccccc;stop-opacity:1"
       offset="0"
       id="stop1012" /><stop
       style="stop-color:#ffffff;stop-opacity:1"
       offset="1"
       id="stop1014" /></linearGradient><linearGradient
     inkscape:collect="always"
     id="linearGradient980"><stop
       style="stop-color:#000000;stop-opacity:1"
       offset="0"
       id="stop976" /><stop
       style="stop-color:#090000;stop-opacity:0"
       offset="1"
       id="stop978" /></linearGradient><linearGradient
     inkscape:collect="always"
     id="linearGradient962"><stop
       style="stop-color:#a0892c;stop-opacity:1"
       offset="0"
       id="stop958" /><stop
       style="stop-color:#d3bc5f;stop-opacity:1"
       offset="1"
       id="stop960" /></linearGradient><linearGradient
     inkscape:collect="always"
     id="linearGradient954"><stop
       style="stop-color:#214478;stop-opacity:1"
       offset="0"
       id="stop950" /><stop
       style="stop-color:#3771c8;stop-opacity:1"
       offset="1"
       id="stop952" /></linearGradient><linearGradient
     inkscape:collect="always"
     xlink:href="#linearGradient954"
     id="linearGradient956"
     x1="30.826666"
     y1="18.926252"
     x2="30.88315"
     y2="30.97331"
     gradientUnits="userSpaceOnUse" /><linearGradient
     inkscape:collect="always"
     xlink:href="#linearGradient962"
     id="linearGradient964"
     x1="16.69561"
     y1="4.9326797"
     x2="16.841637"
     y2="17.262091"
     gradientUnits="userSpaceOnUse" /><linearGradient
     inkscape:collect="always"
     xlink:href="#linearGradient980"
     id="linearGradient982"
     x1="9.6515942"
     y1="7.4727798"
     x2="50.77092"
     y2="33.54739"
     gradientUnits="userSpaceOnUse"
     gradientTransform="translate(80)" /><linearGradient
     inkscape:collect="always"
     xlink:href="#linearGradient980"
     id="linearGradient1002"
     gradientUnits="userSpaceOnUse"
     x1="9.6515942"
     y1="7.4727798"
     x2="50.77092"
     y2="33.54739" /><linearGradient
     inkscape:collect="always"
     xlink:href="#linearGradient1016"
     id="linearGradient1018"
     x1="30.781895"
     y1="4.9326797"
     x2="30.927923"
     y2="17.167974"
     gradientUnits="userSpaceOnUse" /><linearGradient
     inkscape:collect="always"
     xlink:href="#linearGradient1016"
     id="linearGradient1026"
     x1="16.883846"
     y1="18.738016"
     x2="17.029871"
     y2="30.59684"
     gradientUnits="userSpaceOnUse" /></defs><sodipodi:namedview
   pagecolor="#ffffff"
   bordercolor="#666666"
   borderopacity="1"
   objecttolerance="10"
   gridtolerance="10"
   guidetolerance="10"
   inkscape:pageopacity="0"
   inkscape:pageshadow="2"
   inkscape:window-width="1366"
   inkscape:window-height="719"
   id="namedview37"
   showgrid="false"
   showguides="true"
   inkscape:guide-bbox="true"
   inkscape:zoom="5.3125"
   inkscape:cx="24"
   inkscape:cy="24"
   inkscape:window-x="0"
   inkscape:window-y="25"
   inkscape:window-maximized="1"
   inkscape:current-layer="g1039" />


<g
   id="g6"
   transform="translate(0,-464)">
</g>
<g
   id="g8"
   transform="translate(0,-464)">
</g>
<g
   id="g10"
   transform="translate(0,-464)">
</g>
<g
   id="g12"
   transform="translate(0,-464)">
</g>
<g
   id="g14"
   transform="translate(0,-464)">
</g>
<g
   id="g16"
   transform="translate(0,-464)">
</g>
<g
   id="g18"
   transform="translate(0,-464)">
</g>
<g
   id="g20"
   transform="translate(0,-464)">
</g>
<g
   id="g22"
   transform="translate(0,-464)">
</g>
<g
   id="g24"
   transform="translate(0,-464)">
</g>
<g
   id="g26"
   transform="translate(0,-464)">
</g>
<g
   id="g28"
   transform="translate(0,-464)">
</g>
<g
   id="g30"
   transform="translate(0,-464)">
</g>
<g
   id="g32"
   transform="translate(0,-464)">
</g>
<g
   id="g34"
   transform="translate(0,-464)">
</g>
<g
   id="g1039"><g
     id="g1052"><path
       inkscape:connector-curvature="0"
       style="fill:#165044;stroke-width:0.0924025"
       d="m 24.000976,0.3457035 c -5.833461,0 -10.522198,1.1203776 -13.935546,3.3320313 -4.1011933,2.6574037 -6.2695315,6.9015122 -6.2695315,12.2714832 0,7.226706 5.8062658,16.88549 7.5859375,19.673828 2.031747,3.183082 4.250107,6.079783 6.246093,8.15625 2.542362,2.644284 4.56815,3.875 6.373047,3.875 1.804991,0 3.829009,-1.230625 6.371093,-3.875 1.995894,-2.076376 4.214349,-4.973077 6.246094,-8.15625 C 38.397835,32.8348 44.204101,23.175924 44.204101,15.949219 44.204193,10.57934 42.037899,6.3352307 37.936523,3.6777348 34.523359,1.4660811 29.834346,0.3457035 24.000976,0.3457035 Z"
       id="path852" /><path
       style="fill:url(#linearGradient1002);fill-opacity:1;stroke:none;stroke-width:1px;stroke-linecap:butt;stroke-linejoin:miter;stroke-opacity:1"
       d="m 27.29102,46.386719 c 0.95237,-0.632966 1.94888,-1.43071 3.08007,-2.607422 1.99589,-2.076377 4.21436,-4.973078 6.2461,-8.15625 0.88983,-1.394123 2.78691,-4.505287 4.46093,-8.171875 0.83702,-1.833294 1.61927,-3.806143 2.19141,-5.771484 0.57215,-1.965342 0.93359,-3.923793 0.93359,-5.730469 2e-5,-1.057434 -0.15017,-2.033394 -0.3164,-3 L 36.31641,5.4707031 29.31836,12.09375 22.6543,5.5175781 11.496094,16.722656 l 4.974609,4.923828 -4.998047,8.78711 z"
       id="path974"
       inkscape:connector-curvature="0" /><path
       style="opacity:0.3;fill:#000000;stroke-width:0.0924025"
       d="m 3.923828,14.736328 c -0.02737,0.413032 -0.128906,0.785353 -0.128906,1.212891 0,7.226706 5.808218,16.885489 7.58789,19.673828 2.031746,3.183082 4.248155,6.079783 6.244141,8.15625 2.542362,2.644284 4.568149,3.875 6.373047,3.875 1.804991,0 3.829009,-1.230626 6.371094,-3.875 1.995894,-2.076377 4.214348,-4.973078 6.246094,-8.15625 1.779671,-2.788246 7.585937,-12.447125 7.585937,-19.673828 7e-6,-0.427554 -0.101563,-0.799843 -0.128906,-1.212891 -0.08351,1.592147 -0.311141,3.248005 -0.804688,4.94336 -0.572145,1.965341 -1.354393,3.93819 -2.191406,5.771484 -1.674026,3.666588 -3.571102,6.777752 -4.460937,8.171875 -2.031746,3.183172 -4.2502,6.079873 -6.246094,8.15625 -1.271043,1.322187 -2.411549,2.291484 -3.460938,2.929687 -1.049388,0.638204 -2.00766,0.945313 -2.910156,0.945313 -0.902449,0 -1.858349,-0.307098 -2.908203,-0.945313 C 20.041943,44.07077 18.898134,43.101439 17.626953,41.779297 15.630967,39.70283 13.41456,36.806129 11.382812,33.623047 10.492976,32.228877 8.5959,29.117748 6.921875,25.451172 6.084862,23.617884 5.302614,21.645022 4.730469,19.679688 4.236917,17.984324 4.00733,16.328486 3.923828,14.736328 Z"
       id="path918"
       inkscape:connector-curvature="0" /><rect
       x="11.14267"
       y="5.1420197"
       width="12.004849"
       height="12.004849"
       ry="1.4182949"
       rx="1.4182485"
       style="fill:url(#linearGradient964);fill-opacity:1;stroke:none;stroke-width:0.28693241"
       id="rect1307" /><rect
       x="24.852484"
       y="5.1420197"
       width="12.004849"
       height="12.004849"
       ry="1.4182949"
       rx="1.4182485"
       style="fill:url(#linearGradient1018);stroke:none;stroke-width:0.28693241;fill-opacity:1"
       id="rect2202" /><rect
       x="11.14267"
       y="18.853239"
       width="12.004849"
       height="12.004849"
       ry="1.4182949"
       rx="1.4182485"
       style="fill:url(#linearGradient1026);stroke:none;stroke-width:0.28693241;fill-opacity:1"
       id="rect2208" /><rect
       x="24.852484"
       y="18.853239"
       width="12.004849"
       height="12.004849"
       ry="1.4182949"
       rx="1.4182485"
       style="fill:url(#linearGradient956);stroke:none;stroke-width:0.28693241;fill-opacity:1"
       id="rect2210" /><text
       x="13.160377"
       y="12.697899"
       xml:space="preserve"
       style="font-size:6.80777836px;line-height:125%;font-family:'Bitstream Vera Sans';fill:#000000;stroke-width:0.46431446"
       id="text4831"><tspan
         x="13.160377"
         y="12.697899"
         id="tspan4833"
         style="stroke-width:0.46431446">O</tspan></text>
<text
       x="26.757536"
       y="26.116966"
       xml:space="preserve"
       style="font-size:6.80777836px;line-height:125%;font-family:'Bitstream Vera Sans';fill:#000000;stroke-width:0.46431446"
       id="text4835"><tspan
         x="26.757536"
         y="26.116966"
         id="tspan4837"
         style="stroke-width:0.46431446">B</tspan></text>
</g></g></svg>

<svg xmlns="http://www.w3.org/2000/svg" xmlns:xlink="http://www.w3.org/1999/xlink" width="48" height="48"><defs><linearGradient id="d"><stop offset="0" stop-color="#ccc"/><stop offset="1" stop-color="#fff"/></linearGradient><linearGradient id="c"><stop offset="0"/><stop offset="1" stop-color="#090000" stop-opacity="0"/></linearGradient><linearGradient id="b"><stop offset="0" stop-color="#a0892c"/><stop offset="1" stop-color="#d3bc5f"/></linearGradient><linearGradient id="a"><stop offset="0" stop-color="#214478"/><stop offset="1" stop-color="#3771c8"/></linearGradient><linearGradient xlink:href="#a" id="i" x1="30.83" y1="18.93" x2="30.88" y2="30.97" gradientUnits="userSpaceOnUse"/><linearGradient xlink:href="#b" id="f" x1="16.7" y1="4.93" x2="16.84" y2="17.26" gradientUnits="userSpaceOnUse"/><linearGradient xlink:href="#c" id="e" gradientUnits="userSpaceOnUse" x1="9.65" y1="7.47" x2="50.77" y2="33.55"/><linearGradient xlink:href="#d" id="g" x1="30.78" y1="4.93" x2="30.93" y2="17.17" gradientUnits="userSpaceOnUse"/><linearGradient xlink:href="#d" id="h" x1="16.88" y1="18.74" x2="17.03" y2="30.6" gradientUnits="userSpaceOnUse"/></defs><path d="M24 .35c-5.83 0-10.52 1.12-13.93 3.33-4.1 2.66-6.27 6.9-6.27 12.27 0 7.23 5.8 16.88 7.58 19.67a54.48 54.48 0 0 0 6.25 8.16c2.54 2.64 4.57 3.87 6.37 3.87 1.8 0 3.83-1.23 6.37-3.87 2-2.08 4.22-4.97 6.25-8.16 1.78-2.79 7.58-12.44 7.58-19.67 0-5.37-2.16-9.61-6.26-12.27C34.52 1.47 29.84.35 24 .35z" fill="#165044"/><path d="M27.3 46.39c.94-.64 1.94-1.43 3.07-2.61 2-2.08 4.22-4.97 6.25-8.16.89-1.4 2.78-4.5 4.46-8.17a43.2 43.2 0 0 0 2.19-5.77c.57-1.97.93-3.92.93-5.73 0-1.06-.15-2.03-.31-3l-7.57-7.48-7 6.62-6.67-6.57-11.15 11.2 4.97 4.93-5 8.78z" fill="url(#e)"/><path d="M3.92 14.74c-.02.4-.13.78-.13 1.2 0 7.24 5.81 16.9 7.6 19.68a54.47 54.47 0 0 0 6.24 8.16c2.54 2.64 4.57 3.87 6.37 3.87 1.8 0 3.83-1.23 6.37-3.87 2-2.08 4.22-4.97 6.25-8.16 1.78-2.79 7.58-12.44 7.58-19.67 0-.43-.1-.8-.13-1.21a21.6 21.6 0 0 1-.8 4.94 43.2 43.2 0 0 1-2.2 5.77 69.59 69.59 0 0 1-4.45 8.17 54.47 54.47 0 0 1-6.25 8.16 17.98 17.98 0 0 1-3.46 2.93c-1.05.64-2 .94-2.91.94-.9 0-1.86-.3-2.9-.94-1.06-.64-2.2-1.6-3.47-2.93-2-2.08-4.22-4.97-6.25-8.16a69.6 69.6 0 0 1-4.46-8.17 43.2 43.2 0 0 1-2.19-5.77 21.6 21.6 0 0 1-.8-4.94z" opacity=".3"/><rect x="11.14" y="5.14" width="12" height="12" ry="1.42" rx="1.42" fill="url(#f)"/><rect x="24.85" y="5.14" width="12" height="12" ry="1.42" rx="1.42" fill="url(#g)"/><rect x="11.14" y="18.85" width="12" height="12" ry="1.42" rx="1.42" fill="url(#h)"/><rect x="24.85" y="18.85" width="12" height="12" ry="1.42" rx="1.42" fill="url(#i)"/><text x="13.16" y="12.7" style="line-height:125%" font-size="6.81" font-family="Bitstream Vera Sans" stroke-width=".46"><tspan x="13.16" y="12.7">O</tspan></text><text x="26.76" y="26.12" style="line-height:125%" font-size="6.81" font-family="Bitstream Vera Sans" stroke-width=".46"><tspan x="26.76" y="26.12">B</tspan></text></svg>
